packages/astro-components-stencil/src/icons/swap-horizontal-circle.svg

<svg xmlns="http://www.w3.org/2000/svg" viewBox="0 0 24 24"><g xmlns="http://www.w3.org/2000/svg" id="swap-horizontal-circle" fill-rule="nonzero">
            <path d="M22 12c0-5.52-4.48-10-10-10S2 6.48 2 12s4.48 10 10 10 10-4.48 10-10zm-7-5.5l3.15 3.15c.2.2.2.51 0 .71L15 13.5V11h-4V9h4V6.5zm-6 11l-3.15-3.15c-.2-.2-.2-.51 0-.71L9 10.5V13h4v2H9v2.5z"/>
        </g></svg>

<svg width="24" height="24" viewBox="0 0 24 24" fill="none" xmlns="http://www.w3.org/2000/svg">
<path fill-rule="evenodd" clip-rule="evenodd" d="M22 12C22 6.48 17.52 2 12 2C6.48 2 2 6.48 2 12C2 17.52 6.48 22 12 22C17.52 22 22 17.52 22 12ZM15 6.5L18.15 9.65C18.35 9.85 18.35 10.16 18.15 10.36L15 13.5V11H11V9H15V6.5ZM5.85 14.35L9 17.5V15H13V13H9V10.5L5.85 13.64C5.65 13.84 5.65 14.15 5.85 14.35Z" fill="black"/>
</svg>
